src/assets/images/icons/rocket.svg

<svg width="24" height="24" viewBox="0 0 24 24" fill="none" xmlns="http://www.w3.org/2000/svg">
<path d="M13.3248 10.6752L5.44059 18.5594M6.29145 12.8375L2.42965 11.9253C2.00478 11.825 1.85535 11.2975 2.16313 10.9886L5.23428 7.91744C5.44059 7.71113 5.72049 7.59292 6.01378 7.59069L9.47635 7.56059M13.8377 3.59842C16.4149 5.35591 18.6441 7.58512 20.4016 10.1623M11.1614 17.7085L12.0736 21.5703C12.1739 21.9952 12.7014 22.1447 13.0103 21.8369L16.0814 18.7657C16.2878 18.5594 16.406 18.2795 16.4082 17.9862L16.4383 14.5236M21.0629 8.35012L21.9639 4.01438C22.2093 2.83454 21.1655 1.79075 19.9856 2.03608L15.6499 2.93713C14.373 3.20254 13.2021 3.83483 12.281 4.75707L8.72362 8.31332C7.36647 9.67047 6.48326 11.4302 6.20447 13.3293L6.19221 13.4107C6.01601 14.6229 6.42193 15.8462 7.28729 16.7127C8.15266 17.5781 9.3771 17.984 10.5893 17.8067L10.6707 17.7944C12.5698 17.5167 14.3295 16.6324 15.6867 15.2753L19.2429 11.719C20.1652 10.7979 20.7975 9.62698 21.0629 8.35012Z" stroke="#181D27" stroke-width="2" stroke-linecap="round" stroke-linejoin="round"/>
</svg>

<svg xmlns="http://www.w3.org/2000/svg" fill="none" viewBox="0 0 24 24"><path stroke="#181D27" stroke-linecap="round" stroke-linejoin="round" stroke-width="2" d="M13.325 10.675 5.44 18.56m.85-5.722-3.861-.912a.558.558 0 0 1-.267-.936l3.071-3.072c.207-.206.486-.324.78-.326l3.462-.03m4.362-3.963a25 25 0 0 1 6.564 6.564m-9.24 7.547.912 3.861c.1.425.627.575.936.267l3.071-3.071c.207-.207.325-.486.327-.78l.03-3.462m4.625-6.174.9-4.336a1.672 1.672 0 0 0-1.977-1.978l-4.336.901a6.7 6.7 0 0 0-3.369 1.82L8.724 8.313a8.93 8.93 0 0 0-2.52 5.016l-.012.082a3.877 3.877 0 0 0 4.397 4.396l.082-.013a8.92 8.92 0 0 0 5.016-2.519l3.556-3.556a6.7 6.7 0 0 0 1.82-3.369"/></svg>
